X: 5
T: Inventio 5
C: Johann Sebastian Bach
%%abc-version 2.0
%%abcx-abcm2ps-target-version 5.9.1 (29 Sep 2008)
%%abc-creator hum2abc beta
%%abcx-conversion-date 2021/01/28 10:10:55
%%abc-copyright Copyright 1994, David Huron
%%abc-edited-by David Huron
%%abcx-initial-encoding-date 1986 November
%%gracespace 0 6 6
%%humdrum-veritas 4140924218
%%humdrum-veritas-data 1123087419
%%linebreak <none>
%%barnumbers 0
L: 1/16
M: 4/4
N: Derived from inven05.krn
Q: 1/4=92
%%staves {1 2}
V: 1 clef=treble
V: 2 clef=bass
K: Eb
[V:1] z2 E D !uppermordent!E2 F2!uppermordent!G4A4 | 
[V:2] !uppermordent!E,4E,,4z E D E C D B, C | 
[V:1] z2 F E !uppermordent!F2 G2!uppermordent!A4B4 | 
[V:2] A, C B, C A, B, G, A, F, E D C D E C D | 
[V:1] G2 c2 !uppermordent!B2 A2 G A B A G2 F2 | 
[V:2] E, E D C D E C D B, E D C B, C A, B, | 
[V:1] E2 G2 B2 e2- e c d e f2 e2 | 
[V:2] G, C B, A, G, A, F, G, C, B, =A, G, A, B, G, A, | 
[V:1] d e !mordent!d c d e c d B b =a b g a f g | 
[V:2] B,2 B,, =A,, B,,2 C,2!uppermordent!D,4E,4 | 
[V:1] e g f g e f d e c b =a g a b g a | 
[V:2] z2 C, B,, C,2 D,2!uppermordent!E,4F,4 | 
[V:1] B b =a g a b g a f b _a g f g e f | 
[V:2] D,2 G,2 !mordent!F,2 E,2 D, E, F, E, D,2 C,2 | 
[V:1] d g f e d e c d F e d c d e c d | 
[V:2] B,,2 D,2 F,2 A,2- A, F, G, A, B,2 A,2 | 
[V:1] e2 B A !uppermordent!B2 c2!uppermordent!_d4e4 | 
[V:2] G, A, G, F, G, A, F, G, E, E _D E C D B, C | 
[V:1] z2 c B !uppermordent!c2 =d2!uppermordent!e4f4 | 
[V:2] A, B, A, G, A, B, G, A, F, F E F D E C D | 
[V:1] z2 d c !uppermordent!d2 e2!uppermordent!f4g4 | 
[V:2] B, C B, =A, B, C _A, B, G, A, F, G, E, F, D, E, | 
[V:1] e f !mordent!e d e f d e c c' b c' a b g a | 
[V:2] C,2 C, =B,, C,2 D,2!uppermordent!E,4F,4 | 
[V:1] f a g a f g e f d c' =b =a b c' a b | 
[V:2] z2 D, C, D,2 E,2!uppermordent!F,4G,4 | 
[V:1] c c' b a b c' a b g c' b a g a f g | 
[V:2] E,2 A,2 !mordent!G,2 F,2 =E, F, G, F, _E,2 D,2 | 
[V:1] =e a g f e f d e G f e d e f d e | 
[V:2] C,2 =E,2 G,2 B,2- B, G, A, B, C2 B,2 | 
[V:1] f2 F =E !uppermordent!F2 G2!uppermordent!A4B4 | 
[V:2] A, B, A, G, A, B, G, A, F, F E F _D E C D | 
[V:1] z2 G F !uppermordent!G2 A2!uppermordent!B4c4 | 
[V:2] B, _D C D B, C A, B, G, F =E =D E F D E | 
[V:1] A2 _d2 !mordent!c2 B2 =A B c B A2 G2 | 
[V:2] F, F E _D E F D E C F E D C D B, C | 
[V:1] F2 =A2 c2 e2- e c _d e f2 e2 | 
[V:2] =A, _D C B, A, B, G, A, C, B, A, G, A, B, G, A, | 
[V:1] _d e !mordent!d c d e c d B a g f g a f g | 
[V:2] B,2 B,, =A,, B,,2 C,2!uppermordent!_D,4E,4 | 
[V:1] a _d c B c d B c A g f =e f g e f | 
[V:2] z2 A,, G,, A,,2 B,,2!uppermordent!C,4_D,4 | 
[V:1] g c B A B c A B G f =e d e f d e | 
[V:2] z2 G,, F,, G,,2 A,,2!uppermordent!B,,4C,4 | 
[V:1] f2 A G !uppermordent!A2 B2!uppermordent!c4_d4 | 
[V:2] F,, C B, C A, B, G, A, F, A, G, A, F, G, E, F, | 
[V:1] z2 B A !uppermordent!B2 c2!uppermordent!_d4e4 | 
[V:2] _D, F, E, F, D, E, C, D, B,, A, G, F, G, A, F, G, | 
[V:1] c a g a f g e f _d b a b c d B c | 
[V:2] A,2 E, =D, E,2 F,2!uppermordent!G,4A,4 | 
[V:1] A c B c A B G A F e d c d e c d | 
[V:2] z2 F, E, F,2 G,2!uppermordent!A,4B,4 | 
[V:1] e2 E D !uppermordent!E2 F2!uppermordent!G4A4 | 
[V:2] G, A, G, F, G, A, F, G, E, E D E C D B, C | 
[V:1] z2 F E !uppermordent!F2 G2!uppermordent!A4B4 | 
[V:2] A, C B, C A, B, G, A, F, E D C D E C D | 
[V:1] G2 c2 !mordent!B2 A2 G A B A G2 F2 | 
[V:2] E, E D C D E C D B, E D C B, C A, B, | 
[V:1] E2 f2 !uppermordent!e2 _d2 c d e d c2 B2 | 
[V:2] G, C B, A, G, A, F, G, E, A, G, F, E, F, _D, E, | 
[V:1] A2 c2 e2 a2- a f g a b2 a2 | 
[V:2] C, F, E, _D, C, D, B,, C, F,, E, =D, C, D, E, C, D, | 
[V:1] a2 g/ f/ e/ f/~f4!fermata!e8 |]  
[V:2] E,2 G,,2 A,,2 B,,2!fermata!E,,8 |]  


